X:3651
T:Curlew
Z: id:dc-reel-55
M:C
L:1/8
K:B Dorian
e|fBBA Bcde|fece agae|faed cAA2|GAce agba|!
fBBA Bcde|fece agaf|=g2ge f2fe|dBBA FBB:|!
c|d2cd BFF2|DFF2 Bcdf|ecBc AEE2|CEAB cedc|!
d2cd BFF2|DFF2 Bcdf|ecBA fcec|dcBA FBB:|!


